X:35
T:Humours of Ballinahinch, The
R:reel
D:Jack Coen--Warming Up
Z:Julie Ross
M:C|
K:D
a3g |: f2df edBA | (3Bcd ef g2ag | {fg}f2df edBc | dBAF EFDe |
f2df edBA | (3Bcd ef g2ag | f~d3 edBc | dBAF EFD2 ||
faaf d2de | faaf ~g3e | faaa b2af | gfed {Bc}B2Ag |
faaf d2de | faaf g3a | aggf gfed | (3Bcd ef gbag :||
